wp-content/themes/twentynineteen/images/carousel-slides-feat/logo.svg

<svg height="68" viewBox="0 0 323 68" width="323" xmlns="http://www.w3.org/2000/svg"><g fill="none"><g transform="translate(0 2.585551)"><path d="m169.379468.15513308v15.22889732h-15.280609v5.7140685h15.280609v15.6425855h5.946768v-15.6425855h15.203042v-5.7140685h-15.203042v-15.22889732z" fill="#f26f21"/><g fill="#58595b"><path d="m50.6509506 46.1003802v-4.4988593h2.973384c1.5254753 0 2.4821293-1.0342205 2.4821293-2.8441065v-15.2030418c0-4.0851711-2.0167301-6.6965779-5.9467681-6.6965779-5.4555133 0-8.6357414 5.2486692-8.6357414 14.2463878v6.9034221c0 2.2752851.6722433 3.4646387 2.6889734 3.5163498l2.5596958.0775665v4.4988593h-19.1589354v-4.4988593l2.973384-.0775665c1.7323194-.0775666 2.5596959-1.1117871 2.5596959-2.8958175v-15.0737643c0-4.0851711-2.0684411-6.6965779-5.9467681-6.6965779-5.4555133 0-8.713308 5.1969582-8.713308 14.0395437v7.3171103c0 2.2235741.8273764 3.3870722 2.8441065 3.3870722h2.6889734v4.4988593h-20.03802285v-4.5764258h3.46463878c1.86159696 0 2.68897337-1.0342206 2.68897337-2.9733841v-18.6676806c0-1.7840304-.90494295-2.973384-2.63726234-2.973384h-7.49809886v-4.4212928h18.3057034v7.3171103c1.861597-5.3262357 6.4897339-8.5064639 11.8935361-8.5064639 6.1536122 0 10.2904943 2.6372624 10.9110267 8.2996198 2.01673-5.2486692 6.5673003-8.2996198 12.1779467-8.2996198 6.4897339 0 11.1178708 3.2577947 11.1178708 10.2904943v16.3148289c0 2.3528517.8273764 3.5939164 2.7665399 3.5939164h2.973384v4.5764258h-19.495057z"/><path d="m94.3209125 28.0532319c-1.5254752 1.6547529-5.1193916 3.0509506-8.1444866 3.5939164-3.5939164.6980988-5.4555134 2.2752852-5.4555134 5.3262357 0 3.1026616 1.6547529 5.3779468 5.4555134 5.3779468 4.7574144 0 8.1444866-4.78327 8.1444866-9.8250951zm8.8425855 18.8745248c-5.041825 0-7.2653991-1.9391635-8.4288972-5.4555134-2.8441065 3.878327-6.4380229 5.4555134-11.5574145 5.4555134-7.0585551 0-11.686692-3.4646388-11.686692-9.5406845 0-7.0585551 6.6448669-8.2996197 11.6091255-9.2045627l3.8007604-.6980989c5.3262358-.9566539 7.4722434-2.068441 7.4722434-5.8174904 0-5.0418251-2.4821293-6.9034221-6.6448669-6.9034221-3.8007605 0-6.0243346 1.1634981-6.1536122 3.4646388 1.3961977.2844106 2.6889734 1.4479087 2.6889734 3.3870722 0 2.4821293-1.6547529 4.4988593-5.1711027 4.4988593-2.8958175 0-5.4038023-1.6547528-5.4038023-5.8174905 0-6.1536121 6.7741445-9.6182509 14.7117871-9.6182509 8.2996198 0 14.375665 3.5939163 14.375665 10.4973384v17.0129278c0 2.8182509.904943 3.878327 2.146008 3.878327 1.447909 0 2.352852-1.1117871 2.352852-4.0076046v-3.1026616h4.085361v3.5163498c.025665 4.78327-2.585742 8.4547529-8.196388 8.4547529"/><path d="m129.975665 14.7117871c-5.455513 0-6.5673 3.8524715-6.5673 7.3946768 0 3.3095057 1.111787 7.1878327 6.5673 7.1878327 5.53308 0 6.567301-3.7490495 6.567301-7.1878327 0-3.4646388-1.085932-7.3946768-6.567301-7.3946768m1.396198 30.5353612c-2.973384-.0775666-5.171103-.0775666-7.058555-.2844107-2.482129.5429658-4.912548 2.2752852-4.912548 5.0418251 0 3.9300381 3.180229 6.0243346 11.06616 6.0243346 8.506464 0 11.738403-2.973384 11.738403-5.946768 0-2.8958175-1.732319-4.6798479-10.83346-4.834981m-.904943 14.660076c-10.781749 0-18.331559-3.4646387-18.331559-8.9201521 0-3.5163498 2.352852-6.0760456 6.774145-7.1102661-3.51635-1.3186312-5.041825-3.3095057-5.041825-6.2053232 0-2.6372624 2.146007-5.3262358 6.489733-6.7741445-3.516349-1.5254753-6.231178-3.7490494-6.231178-8.9201521 0-6.0760456 5.326235-10.9110266 15.952851-10.9110266 3.387073 0 6.567301.904943 8.635742 1.9908745-.542966-.9049429-.904943-2.068441-.904943-3.59391633 0-3.878327 2.76654-7.26539924 7.187833-7.26539924 3.671483 0 5.326235 2.06844107 5.326235 4.57642586 0 2.76653992-1.654752 4.08517111-4.085171 4.08517111-1.732319 0-3.257794-1.11178708-3.723194-2.22357416-.542965.69809886-.698099 1.99087456-.698099 3.18022816 0 1.4479087.413689 2.6889734 1.241065 3.8007604 1.447909.956654 2.688974 3.0509506 2.688974 6.1536122 0 7.3171103-6.644867 11.0661597-15.409886 11.0661597-3.930038 0-5.455514-.6205323-6.360457-.6980989-1.241064.1292776-2.688973 1.1634981-2.688973 2.6889734 0 4.2144487 6.619011 2.6889734 16.728517 3.4646388 8.790875.6980989 12.591862 4.7057034 12.591862 9.669962.051484 8.4288973-8.73939 11.9452471-20.141672 11.9452471"/></g></g><g fill="#58595b" transform="translate(198.570342 12.927757)"><path d="m25.338403 36.6631179-20.89125471-28.57034223v28.57034223h-4.44714829v-35.83574147h4.57642586l20.63269964 27.97566537v-27.97566537h4.4471483v35.80988597h-4.3178708z"/><path d="m36.5596958 18.7711027c0-10.57490498 7.1361217-18.53840308 17.7885932-18.53840308 10.5749049 0 17.7885931 7.93764259 17.7885931 18.53840308 0 10.5749049-7.1878327 18.538403-17.7885931 18.538403-10.6524715 0-17.7885932-7.9634981-17.7885932-18.538403zm30.9231939 0c0-8.3771864-5.1452471-14.55665403-13.1604562-14.55665403-8.0669202 0-13.1604563 6.17946763-13.1604563 14.55665403 0 8.3254752 5.0935361 14.556654 13.1604563 14.556654 8.0152091 0 13.1604562-6.2311788 13.1604562-14.556654z"/><path d="m105.412928 36.6631179-7.8859318-28.90646391-7.8859316 28.90646391h-4.8349809l-10.2129278-35.80988596h4.938403l7.9376426 29.86311786 8.2220533-29.86311786h3.6973384l8.2220528 29.86311786 7.885932-29.86311786h4.938403l-10.212928 35.80988596z"/></g><g transform="translate(186.676806)"><path d="m103.034221 8.81673004 1.55133 2.35285166-49.6684407-1.18935356z" fill="#929497"/><path d="m135.663878 1.5513308h-28.415209l27.613688-1.08593156z" fill="#929497"/><g transform="translate(0 52.745247)"><path d="m112.135361 4.34372624-4.447148 3.28365019-107.45551338-1.65475286z" fill="#929497"/><path d="m94.3984791.07756654 2.0684411 2.35285171-66.0608365-1.1634981z" fill="#929497"/><g fill="#a6a8ab" transform="translate(20.942966 10.08365)"><path d="m49.7201521 2.35285171 2.4045627 2.53384031-51.96958172-.67224335z"/><path d="m29.8114068 1.26692015h-28.41520908l27.58783268-1.08593156z"/></g></g><g fill="#a6a8ab" transform="translate(78.342205)"><path d="m49.7201521 2.19771863 2.4304182 2.50798479-51.99543722-.64638783z"/><path d="m29.8114068 1.08593156h-28.41520908l27.61368818-1.08593156z"/></g></g></g></svg>

<?xml version="1.0" encoding="UTF-8"?>
<svg width="323px" height="68px" viewBox="0 0 323 68" version="1.1" xmlns="http://www.w3.org/2000/svg" xmlns:xlink="http://www.w3.org/1999/xlink">
    <!-- Generator: Sketch 64 (93537) - https://sketch.com -->
    <title>logo</title>
    <desc>Created with Sketch.</desc>
    <g id="Page-1" stroke="none" stroke-width="1" fill="none" fill-rule="evenodd">
        <g id="logo" fill-rule="nonzero">
            <g id="Group" transform="translate(0.000000, 2.585551)">
                <polygon id="Path" fill="#F26F21" points="169.379468 0.15513308 169.379468 15.3840304 154.098859 15.3840304 154.098859 21.0980989 169.379468 21.0980989 169.379468 36.7406844 175.326236 36.7406844 175.326236 21.0980989 190.529278 21.0980989 190.529278 15.3840304 175.326236 15.3840304 175.326236 0.15513308"></polygon>
                <path d="M50.6509506,46.1003802 L50.6509506,41.6015209 L53.6243346,41.6015209 C55.1498099,41.6015209 56.1064639,40.5673004 56.1064639,38.7574144 L56.1064639,23.5543726 C56.1064639,19.4692015 54.0897338,16.8577947 50.1596958,16.8577947 C44.7041825,16.8577947 41.5239544,22.1064639 41.5239544,31.1041825 L41.5239544,38.0076046 C41.5239544,40.2828897 42.1961977,41.4722433 44.2129278,41.5239544 L46.7726236,41.6015209 L46.7726236,46.1003802 L27.6136882,46.1003802 L27.6136882,41.6015209 L30.5870722,41.5239544 C32.3193916,41.4463878 33.1467681,40.4121673 33.1467681,38.6281369 L33.1467681,23.5543726 C33.1467681,19.4692015 31.078327,16.8577947 27.2,16.8577947 C21.7444867,16.8577947 18.486692,22.0547529 18.486692,30.8973384 L18.486692,38.2144487 C18.486692,40.4380228 19.3140684,41.6015209 21.3307985,41.6015209 L24.0197719,41.6015209 L24.0197719,46.1003802 L3.98174905,46.1003802 L3.98174905,41.5239544 L7.44638783,41.5239544 C9.30798479,41.5239544 10.1353612,40.4897338 10.1353612,38.5505703 L10.1353612,19.8828897 C10.1353612,18.0988593 9.23041825,16.9095057 7.49809886,16.9095057 L0,16.9095057 L0,12.4882129 L18.3057034,12.4882129 L18.3057034,19.8053232 C20.1673004,14.4790875 24.7954373,11.2988593 30.1992395,11.2988593 C36.3528517,11.2988593 40.4897338,13.9361217 41.1102662,19.5984791 C43.1269962,14.3498099 47.6775665,11.2988593 53.2882129,11.2988593 C59.7779468,11.2988593 64.4060837,14.556654 64.4060837,21.5893536 L64.4060837,37.9041825 C64.4060837,40.2570342 65.2334601,41.4980989 67.1726236,41.4980989 L70.1460076,41.4980989 L70.1460076,46.0745247 L50.6509506,46.0745247 L50.6509506,46.1003802 Z" id="Path" fill="#58595B"></path>
                <path d="M94.3209125,28.0532319 C92.7954373,29.7079848 89.2015209,31.1041825 86.1764259,31.6471483 C82.5825095,32.3452471 80.7209125,33.9224335 80.7209125,36.973384 C80.7209125,40.0760456 82.3756654,42.3513308 86.1764259,42.3513308 C90.9338403,42.3513308 94.3209125,37.5680608 94.3209125,32.5262357 L94.3209125,28.0532319 Z M103.163498,46.9277567 C98.121673,46.9277567 95.8980989,44.9885932 94.7346008,41.4722433 C91.8904943,45.3505703 88.2965779,46.9277567 83.1771863,46.9277567 C76.1186312,46.9277567 71.4904943,43.4631179 71.4904943,37.3870722 C71.4904943,30.3285171 78.1353612,29.0874525 83.0996198,28.1825095 L86.9003802,27.4844106 C92.226616,26.5277567 94.3726236,25.4159696 94.3726236,21.6669202 C94.3726236,16.6250951 91.8904943,14.7634981 87.7277567,14.7634981 C83.9269962,14.7634981 81.7034221,15.9269962 81.5741445,18.2281369 C82.9703422,18.5125475 84.2631179,19.6760456 84.2631179,21.6152091 C84.2631179,24.0973384 82.608365,26.1140684 79.0920152,26.1140684 C76.1961977,26.1140684 73.6882129,24.4593156 73.6882129,20.2965779 C73.6882129,14.1429658 80.4623574,10.678327 88.4,10.678327 C96.6996198,10.678327 102.775665,14.2722433 102.775665,21.1756654 L102.775665,38.1885932 C102.775665,41.0068441 103.680608,42.0669202 104.921673,42.0669202 C106.369582,42.0669202 107.274525,40.9551331 107.274525,38.0593156 L107.274525,34.956654 L111.359886,34.956654 L111.359886,38.4730038 C111.385551,43.2562738 108.774144,46.9277567 103.163498,46.9277567" id="Shape" fill="#58595B"></path>
                <path d="M129.975665,14.7117871 C124.520152,14.7117871 123.408365,18.5642586 123.408365,22.1064639 C123.408365,25.4159696 124.520152,29.2942966 129.975665,29.2942966 C135.508745,29.2942966 136.542966,25.5452471 136.542966,22.1064639 C136.542966,18.6418251 135.457034,14.7117871 129.975665,14.7117871 M131.371863,45.2471483 C128.398479,45.1695817 126.20076,45.1695817 124.313308,44.9627376 C121.831179,45.5057034 119.40076,47.2380228 119.40076,50.0045627 C119.40076,53.9346008 122.580989,56.0288973 130.46692,56.0288973 C138.973384,56.0288973 142.205323,53.0555133 142.205323,50.0821293 C142.205323,47.1863118 140.473004,45.4022814 131.371863,45.2471483 M130.46692,59.9072243 C119.685171,59.9072243 112.135361,56.4425856 112.135361,50.9870722 C112.135361,47.4707224 114.488213,44.9110266 118.909506,43.8768061 C115.393156,42.5581749 113.867681,40.5673004 113.867681,37.6714829 C113.867681,35.0342205 116.013688,32.3452471 120.357414,30.8973384 C116.841065,29.3718631 114.126236,27.148289 114.126236,21.9771863 C114.126236,15.9011407 119.452471,11.0661597 130.079087,11.0661597 C133.46616,11.0661597 136.646388,11.9711027 138.714829,13.0570342 C138.171863,12.1520913 137.809886,10.9885932 137.809886,9.46311787 C137.809886,5.58479087 140.576426,2.19771863 144.997719,2.19771863 C148.669202,2.19771863 150.323954,4.2661597 150.323954,6.77414449 C150.323954,9.54068441 148.669202,10.8593156 146.238783,10.8593156 C144.506464,10.8593156 142.980989,9.74752852 142.515589,8.63574144 C141.972624,9.3338403 141.81749,10.626616 141.81749,11.8159696 C141.81749,13.2638783 142.231179,14.504943 143.058555,15.61673 C144.506464,16.573384 145.747529,18.6676806 145.747529,21.7703422 C145.747529,29.0874525 139.102662,32.8365019 130.337643,32.8365019 C126.407605,32.8365019 124.882129,32.2159696 123.977186,32.138403 C122.736122,32.2676806 121.288213,33.3019011 121.288213,34.8273764 C121.288213,39.0418251 127.907224,37.5163498 138.01673,38.2920152 C146.807605,38.9901141 150.608592,42.9977186 150.608592,47.9619772 C150.660076,56.3908745 141.869202,59.9072243 130.46692,59.9072243" id="Shape" fill="#58595B"></path>
            </g>
            <g id="Group" transform="translate(198.570342, 12.927757)" fill="#58595B">
                <polygon id="Path" points="25.338403 36.6631179 4.44714829 8.09277567 4.44714829 36.6631179 0 36.6631179 0 0.827376426 4.57642586 0.827376426 25.2091255 28.8030418 25.2091255 0.827376426 29.6562738 0.827376426 29.6562738 36.6372624 25.338403 36.6372624"></polygon>
                <path d="M36.5596958,18.7711027 C36.5596958,8.19619772 43.6958175,0.23269962 54.348289,0.23269962 C64.9231939,0.23269962 72.1368821,8.17034221 72.1368821,18.7711027 C72.1368821,29.3460076 64.9490494,37.3095057 54.348289,37.3095057 C43.6958175,37.3095057 36.5596958,29.3460076 36.5596958,18.7711027 Z M67.4828897,18.7711027 C67.4828897,10.3939163 62.3376426,4.21444867 54.3224335,4.21444867 C46.2555133,4.21444867 41.1619772,10.3939163 41.1619772,18.7711027 C41.1619772,27.0965779 46.2555133,33.3277567 54.3224335,33.3277567 C62.3376426,33.3277567 67.4828897,27.0965779 67.4828897,18.7711027 Z" id="Shape"></path>
                <polygon id="Path" points="105.412928 36.6631179 97.5269962 7.75665399 89.6410646 36.6631179 84.8060837 36.6631179 74.5931559 0.853231939 79.5315589 0.853231939 87.4692015 30.7163498 95.6912548 0.853231939 99.3885932 0.853231939 107.610646 30.7163498 115.496578 0.853231939 120.434981 0.853231939 110.222053 36.6631179"></polygon>
            </g>
            <g id="Group" transform="translate(186.676806, 0.000000)">
                <polygon id="Path" fill="#929497" points="103.034221 8.81673004 104.585551 11.1695817 54.9171103 9.98022814"></polygon>
                <polygon id="Path" fill="#929497" points="135.663878 1.5513308 107.248669 1.5513308 134.862357 0.46539924"></polygon>
                <g transform="translate(0.000000, 52.745247)" id="Path">
                    <polygon fill="#929497" points="112.135361 4.34372624 107.688213 7.62737643 0.23269962 5.97262357"></polygon>
                    <polygon fill="#929497" points="94.3984791 0.0775665399 96.4669202 2.43041825 30.4060837 1.26692015"></polygon>
                    <g transform="translate(20.942966, 10.083650)" fill="#A6A8AB">
                        <polygon points="49.7201521 2.35285171 52.1247148 4.88669202 0.15513308 4.21444867"></polygon>
                        <polygon points="29.8114068 1.26692015 1.39619772 1.26692015 28.9840304 0.180988593"></polygon>
                    </g>
                </g>
                <g transform="translate(78.342205, 0.000000)" fill="#A6A8AB" id="Path">
                    <polygon points="49.7201521 2.19771863 52.1505703 4.70570342 0.15513308 4.05931559"></polygon>
                    <polygon points="29.8114068 1.08593156 1.39619772 1.08593156 29.0098859 0"></polygon>
                </g>
            </g>
        </g>
    </g>
</svg>
